!!!COM: Haydn, Franz Joseph
!!!OTL: String Quartet in B Minor
!!!OPS: Opus 64
!!!ONM: No. 2
!!!OMD: Finale: Presto
!!!OMV: 4
!!!SCT: H III:68
!!!SCA: Thematisch-bibliographisches Werkevererzeichnis (A. van Hoboken)
!!!YOR: Dover Edition; reprint of Eulenburg Edition
!!!ENC: Walter Hewlett
!!!CDT: 1732/3/31/-1809/5/31/
!!!CNT: Oesterreich
!!!YEC: Copyright (c) 1994, 2000 Center for Computer Assisted Research in the Humanities
!!!YEM: Rights to all derivative editions reserved.
!!!YEM: Refer to licensing agreement for further details.
!!!YEN: United States of America
**kern	**kern	**kern	**kern
*I:Violoncello	*I:Viola	*I:Violino II	*I:Violino I
*>[A,A,B,C,C]	*>[A,A,B,C,C]	*>[A,A,B,C,C]	*>[A,A,B,C,C]
*>A	*>A	*>A	*>A
*clefF4	*clefC3	*clefG2	*clefG2
*k[f#c#]	*k[f#c#]	*k[f#c#]	*k[f#c#]
*D:	*D:	*D:	*D:
*M2/4	*M2/4	*M2/4	*M2/4
! Presto	! Presto	! Presto	! Presto
4r	4r	4r	8f#/L
.	.	.	8f#/J
4ryy	4ryy	4ryy	4ryy
=1	=1	=1	=1
4BB/	8r	8r	8.b\L
.	16d\LL	16f#/LL	.
.	16c#\JJ	16e/JJ	16cc#\Jk
4r	8B/L	8d/L	8dd\L
.	8B/J	8d/J	8dd\J
=2	=2	=2	=2
4BB/	8r	8r	8dd\
.	16d\LL	16f#/LL	8r
.	16c#\JJ	16e/JJ	.
4r	8B/L	8d/L	8ff#\L
.	8B/J	8d/J	8ff#\J
=3	=3	=3	=3
4AA#/	8r	8r	8.cc#\L
.	16e\LL	16g/LL	.
.	16d\JJ	16f#/JJ	16dd\Jk
4r	8e\L	8g/L	8cc#\L
.	8c#\J	8e/J	8cc#\J
=4	=4	=4	=4
4AA#/	8A#/	8c#/	8cc#\
.	8r	8r	8r
4r	4r	4r	16aa\LL
.	.	.	16gg\
.	.	.	16aa\
.	.	.	16gg\JJ
=5	=5	=5	=5
2F#\	2c#\	4.e/ 4.A#/	16ff#\LL
.	.	.	16ee\
.	.	.	16dd\
.	.	.	16cc#\JJ
.	.	.	16b\LL
.	.	.	16a#\
.	.	8A#/	16cc#\
.	.	.	16ee\JJ
=6	=6	=6	=6
4BB/	4d\	8B/L	8dd\L
.	.	8d/J	8b\J
4r	4r	4r	16aa\LL
.	.	.	16gg\
.	.	.	16aa\
.	.	.	16gg\JJ
=7	=7	=7	=7
2F#\	2c#\	4.e/ 4.A#/	16ff#\LL
.	.	.	16ee\
.	.	.	16dd\
.	.	.	16cc#\JJ
.	.	.	16b\LL
.	.	.	16a#\
.	.	8A#/	16cc#\
.	.	.	16ee\JJ
=8	=8	=8	=8
4BB/	4d\	8B/L	8dd/L
.	.	8d/	8b/
8BB/L	8B/L	8B/	8B/
8BB/J	8B/J	8B/J	8B/J
=9	=9	=9	=9
8Cn\L	8cn\L	8cn/L	8cn/L
16E\Jk	16e\Jk	16e/Jk	16e/Jk
16r	16r	16r	16r
8D#\L	8d#\L	8d#/L	8d#/L
16F#\Jk	16f#\Jk	16f#/Jk	16f#/Jk
16r	16r	16r	16r
=10	=10	=10	=10
8E\L	8e\L	8e/L	8e/L
16G\Jk	16g\Jk	16g/Jk	16g/Jk
16r	16r	16r	16r
16F#\LL	16f#\LL	16f#/LL	16f#/LL
16G#\	16g#\	16g#/	16g#/
16A#\	16a#\	16a#/	16a#/
16F#\JJ	16f#\JJ	16f#/JJ	16f#/JJ
=11	=11	=11	=11
8B\L	8b\L	8b\L	8b\L
8d\	8dd\	16dd\Jk	8dd\
.	.	16r	.
8c#\	8cc#\	8cc#\L	8cc#\
8F#\J	8f#\J	8ff#\J	8ff#\J
=12	=12	=12	=12
4B\	8b\	8b\	8b\
.	8r	8r	8r
4r	4r	4r	8f#/L
.	.	.	8f#/J
=13	=13	=13	=13
4BB/	8r	8r	8.b\L
.	16d\LL	16f#/LL	.
.	16c#\JJ	16e/JJ	16cc#\Jk
4r	8B/L	8d/L	8dd\L
.	8B/J	8d/J	8dd\J
=14	=14	=14	=14
4BB/	8B/	4d/	8dd\
.	8r	.	8r
4r	8D/L	4r	8d/L
.	8D/J	.	8d/J
=15	=15	=15	=15
2FF#/	[2D/	2r	8cn/L
.	.	.	8B/
.	.	.	8c/
.	.	.	8A#/J
=16	=16	=16	=16
8GG/	8D/]	4r	8B/L
8r	8r	.	8G/
8F#\L	8A/L	8cn/L	8d#/
8F#\J	8A/J	8c/J	8d#/J
=17	=17	=17	=17
4G\	4G/	4B/	16e/LL
.	.	.	16f#/
.	.	.	16g/
.	.	.	16f#/JJ
4r	4r	4r	16a/LL
.	.	.	16g/
.	.	.	16b/
.	.	.	16a/JJ
=18	=18	=18	=18
2r	2r	2r	16ccn\LL
.	.	.	16b\
.	.	.	16ee\
.	.	.	16dd#\JJ
.	.	.	16ff#\LL
.	.	.	16ee\
.	.	.	16gg\
.	.	.	16ff#\JJ
=19	=19	=19	=19
4.G\	4.G/	2b\	16aa\LL
.	.	.	16gg\
.	.	.	16bb\
.	.	.	16aa\JJ
.	.	.	16gg\LL
.	.	.	16ff#\
8G#\	8G#/	.	16ee\
.	.	.	16dd\JJ
=20	=20	=20	=20
4A\	4A/	4e/	8cc#\
.	.	.	8r
4r	4r	4r	8aa\L
.	.	.	8aa\J
=21	=21	=21	=21
4D\	8.d\L	8.f#/L	8.ddd\L
.	16e\Jk	16g/Jk	32ccc#\LL
.	.	.	32bb\JJJ
4r	8f#\L	8a/L	8aa\L
.	8d\J	8f#/J	8aa\J
=22	=22	=22	=22
8CC#/L	[2e\	[2g/ [2A/	8aa\
8C#/	.	.	8r
8C#/	.	.	8eee\L
8C#/J	.	.	8eee\J
=23	=23	=23	=23
8C#/L	2e\]	4.g/] 4.A/]	8ccc#\L
8C#/	.	.	8ccc#\
8C#/	.	.	8gg\
8C#/J	.	8e/	8gg\J
=24	=24	=24	=24
4D\	4A/	4f#/	8ff#\L
.	.	.	8dd\
4r	4r	4r	8aa\
.	.	.	8aa\J
=25	=25	=25	=25
4D\	8A\L	8.f#/L	8.ddd\L
.	16d\L	.	.
.	16e\JJ	16g/Jk	32ccc#\LL
.	.	.	32bb\JJJ
4r	8f#\L	8a/L	8aa\L
.	8d\J	8f#/J	8aa\J
=26	=26	=26	=26
8CC#/L	[2e\	[2g/ [2A/	8aa\
8C#/	.	.	8r
8C#/	.	.	16ddd#\LL
.	.	.	16eee\
8C#/J	.	.	16ddd#\
.	.	.	16eee\JJ
=27	=27	=27	=27
8C#/L	2e\]	4.g/] 4.A/]	16bb#\LL
.	.	.	16ccc#\
8C#/	.	.	16bb#\
.	.	.	16ccc#\JJ
8C#/	.	.	16ff#\LL
.	.	.	16gg\
8C#/J	.	8e/	16ff#\
.	.	.	16gg\JJ
=28	=28	=28	=28
4D\	[2d\	8f#/	8ff#\L
.	.	8r	8dd\J
8FF#/L	.	4r	16d/LL
.	.	.	16e/
8D/J	.	.	16f#/
.	.	.	16d/JJ
=29	=29	=29	=29
8GG/L	2d\_	2r	16e/LL
.	.	.	16f#/
8D/	.	.	16g/
.	.	.	16e/JJ
8AA/	.	.	16f#/LL
.	.	.	16g/
8D/J	.	.	16a/
.	.	.	16f#/JJ
=30	=30	=30	=30
8BB/L	4d\]	4r	16g/LL
.	.	.	16a/
8D/J	.	.	16b/
.	.	.	16g/JJ
4r	8F#/L	16d/LL	8d/L
.	.	16e/	.
.	8d/J	16f#/	8dd/J
.	.	16d/JJ	.
=31	=31	=31	=31
2r	8G\L	16e/LL	8r
.	.	16f#/	.
.	8e\	16g/	8ee\
.	.	16e/JJ	.
.	8A\	16f#/LL	8r
.	.	16g/	.
.	8f#\J	16a/	8ff#\
.	.	16f#/JJ	.
=32	=32	=32	=32
2r	4B/	8g/	8r
.	.	8r	16ff#\LL
.	.	.	16gg\JJ
.	4r	8gg\L	8bb\L
.	.	8gg\J	8bb\J
=33	=33	=33	=33
8r	8r	[2gg\	[2bb\
16B#\LL	16d#\LL	.	.
16c#\JJ	16e\JJ	.	.
8e\L	8cc#\L	.	.
8e\J	8cc#\J	.	.
=34	=34	=34	=34
[2e\	[2cc#\	8gg\L]	8bb\L]
.	.	16dd#\L	16ff#\L
.	.	16ee\JJ	16gg\JJ
.	.	8gg\L	8bb\L
.	.	8gg\J	8bb\J
=35	=35	=35	=35
8e\L]	8cc#\L]	[2gg\	[2bb\
16B#\L	16d#\L	.	.
16c#\JJ	16e\JJ	.	.
8e\L	8cc#\L	.	.
8e\J	8cc#\J	.	.
=36	=36	=36	=36
4e\	4cc#\	4gg\]	8bb\L]
.	.	.	16ff#\L
.	.	.	16gg\JJ
4r	4r	4r	8bb\L
.	.	.	8bb\J
=37	=37	=37	=37
4c#\	4e\	4gg\	8bb\L
.	.	.	16aa\L
.	.	.	16ccc#\JJ
4r	4r	4r	8eee\L
.	.	.	8eee\J
=38	=38	=38	=38
4c#\	4g\ 4A\	8r	8eee\L
.	.	16a\LL	16ccc#\L
.	.	16cc#\JJ	16eee\JJ
4r	4r	8ee\L	8ggg\L
.	.	8ee\J	8ggg\J
=39	=39	=39	=39
8c#\L	4A/	8ee\L	4.ggg\
16A\L	.	8cc#\	.
16c#\JJ	.	.	.
8e\L	4c#\	8a\	.
8c#\J	.	8a\J	8eee\
=40	=40	=40	=40
8d\L	4d\	4a/	8fff#\L
8d\	.	.	16ddd\L
.	.	.	16fff#\JJ
8d\	4f#\	8r	8aaa\L
8d\J	.	16f#/LL	8aaa\J
.	.	16a/JJ	.
=41	=41	=41	=41
8F#\L	[2d\	8dd\L	4.aaa\
8F#\	.	16a\L	.
.	.	16dd\JJ	.
8F#\	.	8ff#\L	.
8F#\J	.	8dd\J	8aa\
=42	=42	=42	=42
8G\L	2d\]	[2b\	8bb\L
8G\	.	.	16gg\L
.	.	.	16bb\JJ
8G\	.	.	8ddd\L
8G\J	.	.	16bb\L
.	.	.	16ddd\JJ
=43	=43	=43	=43
8G\L	8e\L	4b\]	8ggg\L
8G\	8b\	.	8ggg\
8G\	8a\	4r	8fff#\
8G\J	8g\J	.	8eee\J
=44	=44	=44	=44
8A\L	8f#\L	8dd\L	16fff#\LL
.	.	.	16ddd\
8A\	8e\	8ee\	16ggg\
.	.	.	16eee\JJ
8A\	8d\	8ff#\	8aaa\L
8A\J	8d\J	8ff#\J	8aaa\J
=45	=45	=45	=45
8A\L	4a\	2cc#\	2eee\
8A\	.	.	.
8A\	4G/	.	.
8A\J	.	.	.
=46	=46	=46	=46
[2DD/	2F#/	4dd\	8ddd\
.	.	.	8r
.	.	4r	8A/L
.	.	.	8A/J
=47	=47	=47	=47
2DD/_	2G/	2r	8.B/L
.	.	.	16c#/Jk
.	.	.	8d/L
.	.	.	8d/J
=48	=48	=48	=48
2DD/_	2F#/	4r	4A/
.	.	4A/	8a/L
.	.	.	8a/J
=49	=49	=49	=49
2DD/_	2G/	4B/	8.a/L
.	.	.	16g/Jk
.	.	4c#/	8f#/L
.	.	.	8e/J
=50	=50	=50	=50
2DD/_	8E/L	8c#/L	8g/L
.	8F#/	8d/J	8f#/
.	8F#/	4r	8A/
.	8F#/J	.	8A/J
=51	=51	=51	=51
2DD/_	2G/	4r	8.B/L
.	.	.	16c#/Jk
.	.	8B/L	8d/L
.	.	8B/J	8d/J
=52	=52	=52	=52
4DD/]	4F#/	4A/	4A/
4r	4r	4r	16c#/LL
.	.	.	16d/
.	.	.	16f#/
.	.	.	16d/JJ
=53	=53	=53	=53
4GG/	4d\	4d/	8B/L
.	.	.	8B/J
4r	4r	4r	16c#/LL
.	.	.	16d/
.	.	.	16f#/
.	.	.	16d/JJ
=54	=54	=54	=54
4FF#/	4d\	4d/	8A/L
.	.	.	8A/J
4r	4r	4r	16c#/LL
.	.	.	16d/
.	.	.	16f#/
.	.	.	16d/JJ
=55	=55	=55	=55
4EE/	4d\	4g/	16G/LL
.	.	.	16g/
.	.	.	16b/
.	.	.	16a/JJ
4r	4r	4r	16g/LL
.	.	.	16f#/
.	.	.	16e/
.	.	.	16d/JJ
=56	=56	=56	=56
4AA/	4c#\	4g/	16c#/LL
.	.	.	16e/
.	.	.	16ee/
.	.	.	16dd/JJ
4r	4r	4r	16cc#/LL
.	.	.	16b/
.	.	.	16a/
.	.	.	16g/JJ
=57	=57	=57	=57
4DD/	4d\	4f#/	16f#\LL
.	.	.	16aa\
.	.	.	16gg\
.	.	.	16ff#\JJ
4r	4r	4r	16ee\LL
.	.	.	16dd\
.	.	.	16cc#\
.	.	.	16b\JJ
=58	=58	=58	=58
4r	4r	4r	16a/LL
.	.	.	16g/
.	.	.	16f#/
.	.	.	16e/JJ
8r	8r	8r	16d/LL
.	.	.	16c#/
8FF#/	8D/	8d/	16B/
.	.	.	16A/JJ
=59	=59	=59	=59
8GG/L	8G/L	8G/L	8G/L
8GG/	8G/	8G/	8G/
8AA/	8A/	8A/	8A/
8AA/J	8A/J	8A/J	8A/J
=60	=60	=60	=60
8D\L	8F#/L	8A/L	8d/
8D\J	8F#/J	8A/J	8r
4r	4r	4r	8f#/L
.	.	.	8f#/J
=61	=61	=61	=61
8D\L	8F#/L	8A/L	4r
8D\J	8F#/J	8A/J	.
4r	4r	4r	8a/L
.	.	.	8a/J
=62	=62	=62	=62
8D\L	8F#/L	8A/L	4r
8D\J	8F#/J	8A/J	.
4r	4r	4r	8dd\L
.	.	.	8dd\J
=63	=63	=63	=63
8D\L	8F#/L	8A/L	4r
8D\J	8F#/J	8A/J	.
4r	4r	4r	8ff#\L
.	.	.	8ff#\J
=64	=64	=64	=64
8D\L	8F#/L	8A/L	4r
8D\J	8F#/	8A/	.
=:!!:	=:!!:	=:!!:	=:!!:
*>B	*>B	*>B	*>B
4r	8f#/	8dd/	8aa\L
.	8f#/J	8dd/J	8aa\J
4ryy	4ryy	4ryy	4ryy
=65	=65	=65	=65
2r	8.f#\L	4.dd\	8.aa\L
.	16g\Jk	.	16bb\Jk
.	8a\L	.	8cccn\L
.	8a\J	8f#/	8ccc\J
=66	=66	=66	=66
4r	8g\	8g/	8bb\
.	8r	8r	8r
8G\L	8g\L	8g/L	8g/L
8G\J	8g\J	8g/J	8g/J
=67	=67	=67	=67
8.D\L	8.d\L	8.d/L	8.d/L
16E\Jk	16e\Jk	16e/Jk	16e/Jk
16D/LL	16d/LL	16d/LL	16d/LL
16Cn/	16cn/	16cn/	16cn/
16BB/	16B/	16B/	16B/
16AA/JJ	16A/JJ	16A/JJ	16A/JJ
=68	=68	=68	=68
8GG/	8G/	8G/	8G/
8r	8r	8r	8r
4r	8d#\L	8b\L	8ff#\L
.	8d#\J	8b\J	8ff#\J
=69	=69	=69	=69
2r	8.d#\L	4.b\	8.ff#\L
.	16e\Jk	.	16gg\Jk
.	8f#\L	.	8aa\L
.	8f#\J	8d#/	8aa\J
=70	=70	=70	=70
4r	8e\	8e/	8gg\
.	8r	8r	8r
8e\L	8ee\L	8ee\L	8ee\L
8e\J	8ee\J	8ee\J	8ee\J
=71	=71	=71	=71
8.B\L	8.b\L	8.b\L	8.b\L
16cn\Jk	16ccn\Jk	16ccn\Jk	16ccn\Jk
16B\LL	16b\LL	16b/LL	16b/LL
16A\	16a\	16a/	16a/
16G\	16g\	16g/	16g/
16F#\JJ	16f#\JJ	16f#/JJ	16f#/JJ
=72	=72	=72	=72
8E\	8e\	8e/	8e/
8r	8r	8r	8r
4r	8e\L	8a#/L	8gg\L
.	8e\J	8a#/J	8gg\J
=73	=73	=73	=73
2r	8e\	8a#/	8gg\L
.	8r	8r	8a#\
.	8d#\L	8b\L	8ff#\
.	8d#\J	8b\J	8ff#\J
=74	=74	=74	=74
2r	8d#\	8b\	8ff#\L
.	8r	8r	8b\
.	8f#\L	8b#\L	8aa\
.	8f#\J	8b#\J	8aa\J
=75	=75	=75	=75
2r	8f#\	8b#\	8aa\L
.	8r	8r	8b#\
.	8e#\L	8cc#\L	8gg#\
.	8e#\J	8cc#\J	8gg#\J
=76	=76	=76	=76
2r	8e#\	8cc#\	8gg#\L
.	8r	8r	8cc#\J
.	4r	4r	4r
=77	=77	=77	=77
2r	2r	2r	2r
=78	=78	=78	=78
4r	4r	4r	4r
8C#/L	8c#\L	8c#/L	8c#/L
8C#/J	8c#\J	8c#/J	8c#/J
=79	=79	=79	=79
8FF#\L	8F#/L	8A/L	8.f#/L
8F#\	16A/L	16c#/L	.
.	16G#/JJ	16B/JJ	16g#/Jk
8F#\	8F#/L	8A/L	8a/L
8F#\J	8F#/J	8A/J	8a/J
=80	=80	=80	=80
8FF#\L	8r	8r	8a/
8F#\	16A/LL	16c#/LL	8r
.	16G#/JJ	16B/JJ	.
8F#\	8F#/L	8A/L	8cc#\L
8F#\J	8F#/J	8A/J	8cc#\J
=81	=81	=81	=81
8EE#/L	[2G#/	8r	8.g#/L
8E#/	.	16d/LL	.
.	.	16c#/JJ	16a/Jk
8E#/	.	8B/L	8g#/L
8E#/J	.	8B/J	8g#/J
=82	=82	=82	=82
8EE/L	2G#/]	16c#/LL	8g#/
.	.	16d#/	.
8E/	.	16c#/	8r
.	.	16B#/JJ	.
8E/	.	16c#/LL	8cc#\L
.	.	16B#/	.
8E/J	.	16c#/	8cc#\J
.	.	16B#/JJ	.
=83	=83	=83	=83
8DD#/L	[2A#/	16c#/LL	8.f##/L
.	.	16d#/	.
8D#/	.	16c#/	.
.	.	16B#/JJ	16g#/Jk
8D#/	.	16c#/LL	8f##/L
.	.	16B#/	.
8D#/J	.	16c#/	8f##/J
.	.	16B#/JJ	.
=84	=84	=84	=84
8DD#/L	4A#/]	16c#/LL	8f##/
.	.	16d#/	.
8D#/	.	16c#/	8r
.	.	16B#/JJ	.
8D#/	8A#/L	16c#/LL	8ee\L
.	.	16B#/	.
8D#/J	8A#/J	16c#/	8ee\J
.	.	16B#/JJ	.
=85	=85	=85	=85
4D#\	4A#/	8c#/	8ee\L
.	.	8r	8f##\
4r	4r	4r	8ee\
.	.	.	8ee\J
=86	=86	=86	=86
4D#\	4A#/	4c#/	8ee\L
.	.	.	8f##\J
4r	4r	4r	4r
=87	=87	=87	=87
2r	2r	2r	2r
=88	=88	=88	=88
4r	4r	4r	4r
8D#\L	8d#\L	8d#/L	8d#/L
8D#\J	8d#\J	8d#/J	8d#/J
=89	=89	=89	=89
8.G#\L	8.g#\L	8.g#/L	8.g#/L
16A#\Jk	16a#\Jk	16a#/Jk	16a#/Jk
8B\L	8b\L	8b\L	8b\L
8B\J	8b\J	8b\J	8b\J
=90	=90	=90	=90
8B\	8b\	8b\	8b\
8r	8r	8r	8r
4r	4r	4r	8B/L
.	.	.	8B/J
=91	=91	=91	=91
[2D#\	[2B/	[2f#/	8.f#/L
.	.	.	16g#/Jk
.	.	.	8a/L
.	.	.	8a/J
=92	=92	=92	=92
8D#\]	8B/]	8f#/]	8a/
8r	8r	8r	8r
4r	4r	4r	4r
=93	=93	=93	=93
2r	2r	2r	2r
=94	=94	=94	=94
4r	4r	4r	4r
8B\L	8B/L	8b\L	8b\L
8B\J	8B/J	8b\J	8b\J
=95	=95	=95	=95
8.e\L	8.e\L	8.ee\L	8.ee\L
16f#\Jk	16f#\Jk	16ff#\Jk	16ff#\Jk
8g\L	8g\L	8gg\L	8gg\L
8g\J	8g\J	8gg\J	8gg\J
=96	=96	=96	=96
8g\	8g\	8gg\	8gg\
8r	8r	8r	8r
4r	4r	4r	8G/L
.	.	.	8G/J
=97	=97	=97	=97
[2BB/	[2G/	[2d/	8.d/L
.	.	.	16e/Jk
.	.	.	8fn/L
.	.	.	8f/J
=98	=98	=98	=98
8BB/]	8G/]	8d/]	8fn/
8r	8r	8r	8r
4r	4r	4r	8gg\L
.	.	.	8gg\J
=99	=99	=99	=99
2r	8fn\L	8g/L	8b\
.	8f\J	8g/J	8r
.	4r	4r	8gg\L
.	.	.	8gg\J
=100	=100	=100	=100
2r	8e\L	8g/L	8ccn\
.	8e\J	8g/J	8r
.	4r	4r	8gg\L
.	.	.	8gg\J
=101	=101	=101	=101
2r	8d\L	8fn/L	8gg#\
.	8d\J	8f/J	8r
.	4r	4r	8gg#\L
.	.	.	8gg#\J
=102	=102	=102	=102
2r	8c#\L	8e/L	8aa\
.	8c#\J	8e/J	8r
.	4r	4r	8aa\L
.	.	.	8aa\J
=103	=103	=103	=103
2r	8g\L	8a/L	8cc#\
.	8g\J	8a/J	8r
.	4r	4r	8aa\L
.	.	.	8aa\J
=104	=104	=104	=104
2r	8f#\L	8a/L	8dd\
.	8f#\J	8a/J	8r
.	4r	4r	8aa\L
.	.	.	8aa\J
=105	=105	=105	=105
2r	8e\L	8g/L	4aa#\
.	8e\J	8g/J	.
.	4r	4r	8aa#\L
.	.	.	8aa#\J
=106	=106	=106	=106
4r	8d#\L	8f#\L	8bb\
.	8d#\	8f#\	8r
8BB/L	8d#\	8ff#\	8bb\L
8BB/J	8d#\J	8ff#\J	8bb\J
=107	=107	=107	=107
8.E\L	4e\	8.gg\L	8bb\
.	.	.	8r
16F#\Jk	.	16ff#\Jk	.
8G\L	4r	8ee\L	8bb\L
8G\J	.	8ee\J	8bb\J
=108	=108	=108	=108
8G\	4r	8ee\	8B/
8r	.	8r	8r
8BB/L	8e\L	8gg\L	8bb\L
8BB/J	8e\J	8gg\J	8bb\J
=109	=109	=109	=109
8.F#\L	8.f#\L	8.aa\L	8d#/
.	.	.	8r
16G\Jk	16e\Jk	16gg\Jk	.
8A\L	8d#\L	8ff#\L	8bb\L
8A\J	8d#\J	8ff#\J	8bb\J
=110	=110	=110	=110
8A\	8d#\	8ff#\	8B/
8r	8r	8r	8r
8BB/L	8d#\L	8ff#\L	8bb\L
8BB/J	8d#\J	8ff#\J	8bb\J
=111	=111	=111	=111
8.G#\L	8.e#\L	8.gg#\L	8.bb\L
16A\Jk	16f#\Jk	16ff#\Jk	16ccc#\Jk
8B\L	8g#\L	8ee#\L	8ddd\L
8B\J	8g#\J	8ee#\J	8ddd\J
=112	=112	=112	=112
8B\L	8g#\L	4ee#\	4ddd\
8B\	8b\	.	.
8B\	8dd\	8g#/L	8ee#\L
8B\J	8d\J	8g#/J	8ee#\J
=113	=113	=113	=113
8A\L	[2c#\	16f#/LL	8.ff#\L
.	.	16g#/	.
8A\	.	16f#/	.
.	.	16e#/JJ	16aa\Jk
8A\	.	16f#/LL	8ccc#\L
.	.	16e#/	.
8A\J	.	16f#/	8ccc#\J
.	.	16e#/JJ	.
=114	=114	=114	=114
8A\L	2c#\]	16f#/LL	8ccc#\
.	.	16g#/	.
8A\	.	16f#/	8r
.	.	16e#/JJ	.
8A\	.	16f#/LL	8ccc#\L
.	.	16e#/	.
8A\J	.	16f#/	8ccc#\J
.	.	16e#/JJ	.
=115	=115	=115	=115
8G#\L	[2d#\	16f#/LL	8.bb#\L
.	.	16g#/	.
8G#\	.	16f#/	.
.	.	16e/JJ	16ddd#\Jk
8G#\	.	16d#/LL	8fff#\L
.	.	16e/	.
8G#\J	.	16d#/	8fff#\J
.	.	16c#/JJ	.
=116	=116	=116	=116
8G#\L	2d#\]	16B#/LL	8fff#\
.	.	16c#/	.
8G#\	.	16d#/	8r
.	.	16e/JJ	.
8G#\	.	16f#/LL	8bb#\L
.	.	16a/	.
8G#\J	.	16g#/	8bb#\J
.	.	16f#/JJ	.
=117	=117	=117	=117
8G#\L	[2e\	16e/LL	8.ccc#\L
.	.	16f#/	.
8G#\	.	16e/	.
.	.	16d#/JJ	16ddd#\Jk
8G#\	.	16c#/LL	8eee\L
.	.	16B#/	.
8G#\J	.	16c#/	8eee\J
.	.	16B#/JJ	.
=118	=118	=118	=118
8G#\L	2e\]	16c#/LL	8eee\
.	.	16B#/	.
8G#\	.	16c#/	8r
.	.	16d#/JJ	.
8G#\	.	16e\LL	8gg#\L
.	.	16ee\	.
8G#\J	.	16dd#\	8gg#\J
.	.	16cc#\JJ	.
=119	=119	=119	=119
[2GG#/	4d#\	2b#\	16ff#\LL
.	.	.	16gg#\
.	.	.	16aa\
.	.	.	16ff#\JJ
.	4f#\	.	16dd#\LL
.	.	.	16ee\
.	.	.	16ff#\
.	.	.	16dd#\JJ
=120	=120	=120	=120
2GG#/_	4e\	4cc#\	16ee\LL
.	.	.	16ff#\
.	.	.	16gg#\
.	.	.	16ee\JJ
.	4g#\	4e/	16cc#\LL
.	.	.	16dd#\
.	.	.	16ee\
.	.	.	16cc#\JJ
=121	=121	=121	=121
2GG#/_	4f#\	4d#/	16b#\LL
.	.	.	16cc#\
.	.	.	16dd#\
.	.	.	16b#\JJ
.	4d#\	4B#/	16f#/LL
.	.	.	16g#/
.	.	.	16a/
.	.	.	16f#/JJ
=122	=122	=122	=122
2GG#/]	4e\	4c#/	16e/LL
.	.	.	16f#/
.	.	.	16g#/
.	.	.	16e/JJ
.	4c#\	4e/	16c#/LL
.	.	.	16d#/
.	.	.	16e/
.	.	.	16c#/JJ
=123	=123	=123	=123
8GG#/L	8G#/L	8g#/L	16B#/LL
.	.	.	16c#/
8G#/	8g#/	8G#/	16d#/
.	.	.	16B#/JJ
8GG#/	8G#/	8G#/	8G#/L
8GG#/J	8G#/J	8G#/J	8G#/J
=124	=124	=124	=124
4GG#/	4G#/	4G#/	4G#/
4r	4r	4r	4r
=125	=125	=125	=125
[2AA/	2A/	2A/	[2A/
=126	=126	=126	=126
2AA/_	2G/	2c#/	4A/]
.	.	.	8e/L
.	.	.	8e/J
=127	=127	=127	=127
2AA/_	8.F#/L	8.d/L	8.f#/L
.	16E/Jk	16e/Jk	16g/Jk
.	8D/L	8f#/L	8a/L
.	8D/J	8f#/J	8a/J
=128	=128	=128	=128
2AA/]	4D/	8f#/	8a/
.	.	8r	8r
.	8F#/L	8d/L	8f#/L
.	8F#/J	8d/J	8f#/J
=129	=129	=129	=129
[2AA#/	8.G/L	8.c#/L	8.e/L
.	16F#/Jk	16d/Jk	16f#/Jk
.	8E/L	8e/L	8g/L
.	8D/J	8e/J	8g/J
=130	=130	=130	=130
8AA#/]	8C#/	8e/	8g/
8r	8r	8r	8r
4r	4r	4r	4r
=131	=131	=131	=131
2r	2r	2r	2r
=132	=132	=132	=132
2r	2r	2r	4r
.	.	.	8f#/L
.	.	.	8f#/J
=133	=133	=133	=133
4BB/	8r	8r	8.b\L
.	16d\LL	16f#/LL	.
.	16c#\JJ	16e/JJ	16cc#\Jk
4r	8B/L	8d/L	8dd\L
.	8B/J	8d/J	8dd\J
=134	=134	=134	=134
4BB/	8r	8r	8dd\
.	16d\LL	16f#/LL	8r
.	16c#\JJ	16e/JJ	.
4r	8B/L	8d/L	8ff#\L
.	8B/J	8d/J	8ff#\J
=135	=135	=135	=135
4AA#/	8r	8r	8.cc#\L
.	16e\LL	16g/LL	.
.	16d\JJ	16f#/JJ	16dd\Jk
4r	8e\L	8g/L	8cc#\L
.	8c#\J	8e/J	8cc#\J
=136	=136	=136	=136
4AA#/	8A#/	8c#/	8cc#\
.	8r	8r	8r
4r	4r	4r	16aa\LL
.	.	.	16gg\
.	.	.	16aa\
.	.	.	16gg\JJ
=137	=137	=137	=137
2F#\	2c#\	4.en/ 4.A#/	16ff#\LL
.	.	.	16ee\
.	.	.	16dd\
.	.	.	16cc#\JJ
.	.	.	16b\LL
.	.	.	16a#\
.	.	8A#/	16cc#\
.	.	.	16ee\JJ
=138	=138	=138	=138
4BB/	4d\	8B/L	8dd\L
.	.	8d/J	8b\J
4r	4r	4r	16aa\LL
.	.	.	16gg\
.	.	.	16aa\
.	.	.	16gg\JJ
=139	=139	=139	=139
2F#\	2c#\	4.e/ 4.A#/	16ff#\LL
.	.	.	16ee\
.	.	.	16dd\
.	.	.	16cc#\JJ
.	.	.	16b\LL
.	.	.	16a#\
.	.	8A#/	16cc#\
.	.	.	16ee\JJ
=140	=140	=140	=140
8BB/	8d\	8B/L	8dd\L
8r	8r	8d/J	8b\J
16B\LL	8D/L	4r	4r
16c#\	.	.	.
16d\	8B/J	.	.
16B\JJ	.	.	.
=141	=141	=141	=141
8c#\	8E/L	16c#/LL	2r
.	.	16d/	.
8r	8B/	16e/	.
.	.	16c#/JJ	.
16d#\LL	8F#/	8d#/	.
16e\	.	.	.
16f#\	8B/J	8r	.
16d#\JJ	.	.	.
=142	=142	=142	=142
8e\	8G/L	16e/LL	2r
.	.	16f#/	.
8r	8B/J	16g/	.
.	.	16e/JJ	.
8D#\L	16f#\LL	8f#/	.
.	16g\	.	.
8B\J	16a\	8r	.
.	16f#\JJ	.	.
=143	=143	=143	=143
8E\L	8g\	16g/LL	2r
.	.	16a/	.
8G\	8r	16b/	.
.	.	16g/JJ	.
8C#\	16a#\LL	8e/	.
.	16b\	.	.
8E\J	16cc#\	8r	.
.	16a#\JJ	.	.
=144	=144	=144	=144
8D\L	8b\	16b\LL	4r
.	.	16cc#\	.
8B\J	8r	16dd\	.
.	.	16b\JJ	.
4r	8A#\L	8f#/	16cc#\LL
.	.	.	16dd\
.	8f#\J	8r	16ee\
.	.	.	16cc#\JJ
=145	=145	=145	=145
2r	8B\L	16dd\LL	8dd\
.	.	16ee\	.
.	8d\J	16ff#\	8r
.	.	16dd\JJ	.
.	4r	8b/L	16dd#\LL
.	.	.	16ee\
.	.	8a/J	16ff#\
.	.	.	16dd#\JJ
=146	=146	=146	=146
2r	2r	8g/L	16ee\LL
.	.	.	16ff#\
.	.	8e/	16gg\
.	.	.	16ee\JJ
.	.	8d#/	16ff#\LL
.	.	.	16gg\
.	.	8B/J	16aa\
.	.	.	16ff#\JJ
=147	=147	=147	=147
2r	2r	8e/L	16gg\LL
.	.	.	16aa\
.	.	8g/	16bb\
.	.	.	16gg\JJ
.	.	8c#/	16aa#\LL
.	.	.	16bb\
.	.	8e/J	16ccc#\
.	.	.	16aa#\JJ
=148	=148	=148	=148
8D\L	8F#/L	8B/L	16bb\LL
.	.	.	16ccc#\
8D\	8F#/	8B/	16ddd\
.	.	.	16bb\JJ
8D\	8F#/	8B/	8ff#\L
8D\J	8F#/J	8B/J	8ff#\J
=149	=149	=149	=149
8D\L	8F#/L	8B/L	16bb\LL
.	.	.	16ccc#\
8D\	8F#/	8B/	16ddd\
.	.	.	16bb\JJ
8D\	8F#/	8B/	8ff#\L
8D\J	8F#/J	8B/J	8ff#\J
=150	=150	=150	=150
8E\L	8G/L	8B/L	16gg\LL
.	.	.	16aa\
8E\	8G/	8B/	16bb\
.	.	.	16gg\JJ
8E\	8G/	8B/	16ee\LL
.	.	.	16ff#\
8E\J	8G/J	8B/J	16gg\
.	.	.	16ee\JJ
=151	=151	=151	=151
8E\L	8G/L	8c#/L	16cc#\LL
.	.	.	16dd\
8E\	8G/	8c#/	16ee\
.	.	.	16cc#\JJ
8E\	8G/	8c#/	16a#\LL
.	.	.	16b\
8E\J	8G/J	8c#/J	16cc#\
.	.	.	16a#\JJ
=152	=152	=152	=152
8E#\L	8G#/L	8d/L	16b\LL
.	.	.	16cc#\
8E#\	8G#/	8d/	16dd\
.	.	.	16b\JJ
8E#\	8G#/	8d/	8e#/L
8E#\J	8G#/J	8d/J	8e#/J
=153	=153	=153	=153
8E#\L	8G#/L	8d/L	16b\LL
.	.	.	16cc#\
8E#\	8G#/	8d/	16dd\
.	.	.	16b\JJ
8E#\	8G#/	8d/	8e#/L
8E#\J	8G#/J	8d/J	8e#/J
=154	=154	=154	=154
8F#\L	8B/L	8d/L	4r
8F#\J	8B/J	8d/J	.
4r	4r	4r	8f#/L
.	.	.	8f#/J
=155	=155	=155	=155
8F#\L	8B/L	8d/L	4r
8F#\J	8B/J	8d/J	.
4r	4r	4r	8f#/L
.	.	.	8f#/J
=156	=156	=156	=156
8F#\L	8B/L	8c#/L	4r
8F#\J	8B/J	8c#/J	.
4r	4r	4r	8f#/L
.	.	.	8f#/J
=157	=157	=157	=157
8F#\L	8A#/L	8c#/L	4r
8F#\J	8A#/J	8c#/J	.
4r	4r	4r	8f#/L
.	.	.	8f#/J
=158||	=158||	=158||	=158||
*>C	*>C	*>C	*>C
*k[f#c#g#d#a#]	*k[f#c#g#d#a#]	*k[f#c#g#d#a#]	*k[f#c#g#d#a#]
*B:	*B:	*B:	*B:
4BB/	8B\L	8d#/L	8.b\L
.	16d#\L	16f#/L	.
.	16c#\JJ	16e/JJ	16cc#\Jk
4r	8B/L	8d#/L	8dd#\L
.	8B/J	8d#/J	8dd#\J
=159	=159	=159	=159
4BB/	8r	8r	8dd#\
.	16d#\LL	16f#/LL	8r
.	16c#\JJ	16e/JJ	.
4r	8B/L	8d#/L	8ff#\L
.	8B/J	8d#/J	8ff#\J
=160	=160	=160	=160
4AA#/	8r	8r	8.cc#\L
.	16e\LL	16g#/LL	.
.	16d#\JJ	16f#/JJ	16dd#\Jk
4r	8e\L	8g#/L	8cc#\L
.	8c#\J	8e/J	8cc#\J
=161	=161	=161	=161
4AA#/	8A#/	8c#/	8cc#\
.	8r	8r	8r
4r	4r	4r	16ff##\LL
.	.	.	16gg#\
.	.	.	16ff##\
.	.	.	16gg#\JJ
=162	=162	=162	=162
2F#\	2c#\	4.en/ 4.A#/	16ff#\LL
.	.	.	16ee\
.	.	.	16dd#\
.	.	.	16cc#\JJ
.	.	.	16b\LL
.	.	.	16a#\
.	.	8A#/	16cc#\
.	.	.	16ee\JJ
=163	=163	=163	=163
4BB/	4d#\	8B/L	8dd#\L
.	.	8d#/J	8b\J
4r	4r	4r	16ff##\LL
.	.	.	16gg#\
.	.	.	16ff##\
.	.	.	16gg#\JJ
=164	=164	=164	=164
2F#\	2c#\	4.en/ 4.A#/	16ff#\LL
.	.	.	16ee\
.	.	.	16dd#\
.	.	.	16cc#\JJ
.	.	.	16b\LL
.	.	.	16a#\
.	.	8A#/	16cc#\
.	.	.	16ee\JJ
=165	=165	=165	=165
8BB/	8d#\	8B/L	8dd#\L
8r	8r	8d#/J	8b\J
8D#/L	8d#\L	8d#/L	8d#/L
16BB/Jk	16B\Jk	16B/Jk	16B/Jk
16r	16r	16r	16r
=166	=166	=166	=166
8E\L	8e\L	8e/L	8e/L
16C#\Jk	16c#\Jk	16c#/Jk	16c#/Jk
16r	16r	16r	16r
8F#\L	8f#\L	8f#/L	8f#/L
16D#\Jk	16d#\Jk	16d#/Jk	16d#/Jk
16r	16r	16r	16r
=167	=167	=167	=167
8G#\L	8g#\L	8g#/L	8g#/L
16E\Jk	16e\Jk	16e/Jk	16e/Jk
16r	16r	16r	16r
4r	4r	4r	16ee\LL
.	.	.	16dd#\
.	.	.	16cc#\
.	.	.	16b\JJ
=168	=168	=168	=168
8F#\L	8c#\L	8e/L	8a#/L
8F#\J	8c#\J	8e/J	8a#/J
4r	4r	16ee\LL	16gg#\LL
.	.	16dd#\	16ff#\
.	.	16cc#\	16ee\
.	.	16b\JJ	16dd#\JJ
=169	=169	=169	=169
8F#\L	8e\L	8a#/L	8cc#\L
8F#\J	8e\J	8a#/J	8cc#\J
4r	4r	4r	16aa#\LL
.	.	.	16ccc#\
.	.	.	16eee\
.	.	.	16ccc#\JJ
=170	=170	=170	=170
8F#\L	8e\L	8a#\L	8aa#\L
8F#\	8e\	8a#\	8aa#\
8A#\	8f#\	8cc#\	8ee\
8A#\J	8f#\J	8cc#\J	8ee\J
=171	=171	=171	=171
8B\L	8f#\L	8b\L	8dd#\L
8B\	8f#\	8b\	8dd#\
8E\	8b\	8ee\	8gg#\
8E\J	8b\J	8ee\J	8gg#\J
=172	=172	=172	=172
8F#\L	8b\L	8dd#\L	8ff#\L
8F#\	8b\	8dd#\	8ff#\
8F#\	8e\	8cc#\	8a#\
8F#\J	8e\J	8cc#\J	8a#\J
=173	=173	=173	=173
[2BB/	4d#\	4b\	8b\
.	.	.	8r
.	4D#/	4r	8f#/L
.	.	.	8f#/J
=174	=174	=174	=174
2BB/_	2E/	2r	8.g#/L
.	.	.	16a#/Jk
.	.	.	8b\L
.	.	.	8b\J
=175	=175	=175	=175
2BB/_	2D#/	4r	8f#/
.	.	.	8r
.	.	4f#/	8ff#\L
.	.	.	8ff#\J
=176	=176	=176	=176
2BB/_	2E/	4g#/	8.ff#\L
.	.	.	16ee\Jk
.	.	4a#/	8dd#\L
.	.	.	8cc#\J
=177	=177	=177	=177
2BB/_	2D#/	4b\	8dd#/L
.	.	.	8b/
.	.	4r	8f#/
.	.	.	8f#/J
=178	=178	=178	=178
2BB/_	2E/	4r	8.g#/L
.	.	.	16a#/Jk
.	.	4g#/	8b\L
.	.	.	8b\J
=179	=179	=179	=179
4BB/]	4D#/	4f#/	8f#/
.	.	.	8r
4r	4r	4r	16a#\LL
.	.	.	16b\
.	.	.	16dd#\
.	.	.	16b\JJ
=180	=180	=180	=180
8E\L	8e\L	8B/L	8g#/L
8E\J	8e\J	8B/J	8g#/J
4r	4r	4r	16a#\LL
.	.	.	16b\
.	.	.	16dd#\
.	.	.	16b\JJ
=181	=181	=181	=181
8D#\L	8d#\L	8B/L	8f#/L
8D#\J	8d#\J	8B/J	8f#/J
4r	4r	4r	16a#\LL
.	.	.	16b\
.	.	.	16dd#\
.	.	.	16b\JJ
=182	=182	=182	=182
8C#/L	8e\L	8B/L	8e/L
8C#/J	8e\J	8B/J	8e/J
4r	4r	4r	16a#\LL
.	.	.	16b\
.	.	.	16dd#\
.	.	.	16b\JJ
=183	=183	=183	=183
8BB/L	[2f#\	2d#/	8d#/L
8BB/	.	.	8f#/
8BB/	.	.	8b/
8BB/J	.	.	8dd#/J
=184	=184	=184	=184
8D#\L	2f#\]	8B/L	8ff#\L
8D#\	.	8d#/	8bb\
8D#\	.	8f#/	8ddd#\
8D#\J	.	8b/J	8bb\J
=185	=185	=185	=185
4E\	4g#\	4b\	16ff##\LL
.	.	.	16gg#\
.	.	.	16ff##\
.	.	.	16gg#\JJ
4r	4r	4r	16aa#\LL
.	.	.	16bb\
.	.	.	16aa#\
.	.	.	16bb\JJ
=186	=186	=186	=186
4E\	4g#\	4cc#\	16ff##\LL
.	.	.	16gg#\
.	.	.	16ff##\
.	.	.	16gg#\JJ
4r	4r	4r	16dd#\LL
.	.	.	16ee\
.	.	.	16b#\
.	.	.	16cc#\JJ
=187	=187	=187	=187
8F#\L	8d#\L	2b\	2f#/
8F#\	8d#\	.	.
8F#\	8d#\	.	.
8F#\J	8d#\J	.	.
=188	=188	=188	=188
8FF#/L	8e\L	2a#/	2cc#\
8FF#/	8e\	.	.
8FF#/	8e\	.	.
8FF#/J	8e\J	.	.
=189	=189	=189	=189
4BB/	4d#\	4b\	16b\LL
.	.	.	16ff#\
.	.	.	16gg#\
.	.	.	16ff#\JJ
4r	4r	4r	16ee\LL
.	.	.	16dd#\
.	.	.	16cc#\
.	.	.	16b\JJ
=190	=190	=190	=190
4F#\	4c#\	4e/ 4A#/	16a#\LL
.	.	.	16cc#\
.	.	.	16ee\
.	.	.	16gg#\JJ
4r	4r	4r	16ff#\LL
.	.	.	16ee\
.	.	.	16dd#\
.	.	.	16cc#\JJ
=191	=191	=191	=191
4BB/	4B/	4d#/ 4Bn/	16b\LL
.	.	.	16ff#\
.	.	.	16gg#\
.	.	.	16ff#\JJ
4r	4r	4r	16ee\LL
.	.	.	16dd#\
.	.	.	16cc#\
.	.	.	16b\JJ
=192	=192	=192	=192
4F#\	4c#\	4en/ 4A#/	16a#\LL
.	.	.	16cc#\
.	.	.	16ee\
.	.	.	16gg#\JJ
4r	4r	4r	16ff#\LL
.	.	.	16ee\
.	.	.	16dd#\
.	.	.	16cc#\JJ
=193	=193	=193	=193
8BB/L	8d#\L	8d#/ 8B/	8b\
8BB/J	8d#\J	8r	8r
4r	4r	8b\L	8dd#\L
.	.	8b\J	8dd#\J
=194	=194	=194	=194
8BB/L	8f#\ 8d#\L	4r	4r
8BB/J	8f#\ 8d#\J	.	.
4r	4r	8dd#\L	8ff#\L
.	.	8dd#\J	8ff#\J
=195	=195	=195	=195
8BB/L	8f#\ 8d#\L	4r	4r
8BB/J	8f#\ 8d#\J	.	.
4r	4r	8ff#\L	8bb\L
.	.	8ff#\J	8bb\J
=196	=196	=196	=196
8BB/L	8f#\ 8d#\L	4r	4r
8BB/J	8f#\ 8d#\J	.	.
4r	4r	8bb\L	8ddd#\L
.	.	8bb\J	8ddd#\J
=197	=197	=197	=197
8BB/L	8f#\ 8d#\L	4r	4r
8BB/J	8f#\ 8d#\J	.	.
4r	4r	8ddd#\L	8fff#\L
.	.	8ddd#\J	8fff#\J
=198	=198	=198	=198
8BB/L	8f#\ 8d#\L	4r	4r
8BB/J	8f#\ 8d#\J	.	.
4r	4r	8ddd#\L	8bbb\L
.	.	8ddd#\J	8bbb\J
=199	=199	=199	=199
2r	2r	4ddd#\	4bbb\
.	.	4r	4r
=200	=200	=200	=200
2r	2r	2r	2r
=201	=201	=201	=201
4r	4r	4r	4r
==:|!	==:|!	==:|!	==:|!
*-	*-	*-	*-
!!!RWG: Key is interpreted using the Humdrum key tool.
!!!GTL: 6 Quartetti ("Tost III")
!!!AFT: stage2
!!!END: 1994/11/21
!!!KEY: 1635258311
!!!EMD: Converted from MuseData to Humdrum Dec 16, 2000, by Andreas Kornstaedt using muse2kern.
!!!EMD: Manual editing by Craig Sapp, Nov 2001
